public/editor-src/editor/icons/fa/hand-holding-droplet.svg

<svg xmlns="http://www.w3.org/2000/svg" viewBox="0 0 576 512"><!--! Font Awesome Free 6.4.0 by @fontawesome - https://fontawesome.com License - https://fontawesome.com/license/free (Icons: CC BY 4.0, Fonts: SIL OFL 1.1, Code: MIT License) Copyright 2023 Fonticons, Inc.--><path d="M275.5 6.6C278.3 2.5 283 0 288 0s9.7 2.5 12.5 6.6l66.3 96.4c11.2 16.3 17.2 35.6 17.2 55.3v1.7c0 53-43 96-96 96s-96-43-96-96v-1.7c0-19.8 6-39 17.2-55.3l66.3-96.4zm292.7 329.7c13.1 17.8 9.3 42.8-8.5 55.9l-126.6 93.3c-23.4 17.2-51.6 26.5-80.7 26.5H32c-17.7 0-32-14.3-32-32v-64c0-17.7 14.3-32 32-32h36.8l44.9-36c22.7-18.2 50.9-28 80-28H352c17.7 0 32 14.3 32 32s-14.3 32-32 32h-80c-8.8 0-16 7.2-16 16s7.2 16 16 16h120.6l119.7-88.2c17.8-13.1 42.8-9.3 55.9 8.5zM193.6 384h-.9.9z"/></svg>

<svg xmlns="http://www.w3.org/2000/svg" viewBox="0 0 576 512"><!--! Font Awesome Free 6.4.0 by @fontawesome - https://fontawesome.com License - https://fontawesome.com/license/free (Icons: CC BY 4.0, Fonts: SIL OFL 1.1, Code: MIT License) Copyright 2023 Fonticons, Inc. --><path d="M275.5 6.6C278.3 2.5 283 0 288 0s9.7 2.5 12.5 6.6L366.8 103C378 119.3 384 138.6 384 158.3V160c0 53-43 96-96 96s-96-43-96-96v-1.7c0-19.8 6-39 17.2-55.3L275.5 6.6zM568.2 336.3c13.1 17.8 9.3 42.8-8.5 55.9L433.1 485.5c-23.4 17.2-51.6 26.5-80.7 26.5H192 32c-17.7 0-32-14.3-32-32V416c0-17.7 14.3-32 32-32H68.8l44.9-36c22.7-18.2 50.9-28 80-28H272h16 64c17.7 0 32 14.3 32 32s-14.3 32-32 32H288 272c-8.8 0-16 7.2-16 16s7.2 16 16 16H392.6l119.7-88.2c17.8-13.1 42.8-9.3 55.9 8.5zM193.6 384l0 0-.9 0c.3 0 .6 0 .9 0z"/></svg>
